X: 13
T: Cup Of Tea, The
Z: Kenny
S: https://thesession.org/tunes/20#setting51892
R: reel
M: 4/4
L: 1/8
K: Edor
|: BAGF E3 F | GEBE GE E2 | BAGF E3 G | FDAD FD D2 :|
cdef gfed | (3cBA eAcA A2 | cdef gfec | dBAG FD D2 |
cdef gfec | d2 eg f3 g | afdf gece dBAG FD D2 |

%-------------------- TUNE SEPARATOR --------------------%

